; generated by PrusaSlicer 2.1.1+linux64 on 2019-12-24 at 10:18:17 UTC

; 

; external perimeters extrusion width = 0.45mm
; perimeters extrusion width = 0.45mm
; infill extrusion width = 0.45mm
; solid infill extrusion width = 0.45mm
; top infill extrusion width = 0.40mm
; first layer extrusion width = 0.42mm

M73 P0 R24
M201 X9000 Y9000 Z500 E10000 ; sets maximum accelerations, mm/sec^2
M203 X500 Y500 Z12 E120 ; sets maximum feedrates, mm/sec
M204 P2000 R1500 T2000 ; sets acceleration (P, T) and retract acceleration (R), mm/sec^2
M205 X10.00 Y10.00 Z0.20 E2.50 ; sets the jerk limits, mm/sec
M205 S0 T0 ; sets the minimum extruding and travel feed rate, mm/sec
M107
M862.3 P "MK2S" ; printer model check
M862.1 P0.4 ; nozzle diameter check
M115 U3.2.3 ; tell printer latest fw version
G90 ; use absolute coordinates
M83 ; extruder relative mode
M204 S2000 T1500 ; MK2 firmware only supports the old M204 format
M104 S215 ; set extruder temp
M140 S60 ; set bed temp
M190 S60 ; wait for bed temp
M109 S215 ; wait for extruder temp
G28 W ; home all without mesh bed level
G80 ; mesh bed leveling
G1 Y-3.0 F1000.0 ; go outside print area
G92 E0.0
G1 X60.0 E9.0  F1000.0 ; intro line
M73 P0 R24
G1 X100.0 E12.5 F1000.0 ; intro line
G92 E0.0
G21 ; set units to millimeters
G90 ; use absolute coordinates
M83 ; use relative distances for extrusion
M900 K30 ; Filament gcode
;BEFORE_LAYER_CHANGE
G92 E0.0
;0.2


G1 E-0.80000 F2100.00000
G1 Z0.600 F10800.000
;AFTER_LAYER_CHANGE
;0.2
G1 X11.537 Y109.967
G1 Z0.200
G1 E0.80000 F2100.00000
M204 S1000
G1 F1200
G1 X11.324 Y109.234 E0.02394
G1 X11.348 Y100.600 E0.27070
G1 X11.584 Y99.942 E0.02191
G1 X12.012 Y99.395 E0.02179
G1 X12.591 Y99.009 E0.02179
G1 X13.264 Y98.824 E0.02191
G1 X102.440 Y95.312 E2.79819
G1 X140.504 Y95.311 E1.19347
G1 X236.842 Y97.410 E3.02133
G1 X237.502 Y97.626 E0.02179
G1 X238.065 Y98.041 E0.02191
G1 X238.467 Y98.612 E0.02191
G1 X238.669 Y99.277 E0.02179
G1 X238.662 Y110.771 E0.36036
G1 X238.418 Y111.483 E0.02360
G1 X237.947 Y112.070 E0.02360
G1 X237.302 Y112.465 E0.02372
G1 X236.564 Y112.616 E0.02360
G1 X140.533 Y114.688 E3.01171
G1 X102.485 Y114.688 E1.19294
G1 X13.370 Y111.185 E2.79630
G1 X12.628 Y111.007 E0.02394
G1 X11.991 Y110.585 E0.02394
G1 X11.572 Y110.015 E0.02217
G1 F8640
G1 X11.324 Y109.234 E-0.18938
G1 X11.331 Y106.762 E-0.57062
G1 E-0.04000 F2100.00000
G1 Z0.800 F10800.000
G1 X14.087 Y108.413
G1 Z0.200
G1 E0.80000 F2100.00000
G1 F1200
G1 X14.087 Y101.587 E0.21402
G1 X103.087 Y101.587 E2.79053
G1 X103.087 Y98.087 E0.10974
G1 X105.913 Y98.087 E0.08860
G1 X105.913 Y101.587 E0.10974
G1 X137.087 Y101.587 E0.97744
G1 X137.087 Y98.087 E0.10974
G1 X139.913 Y98.087 E0.08860
G1 X139.913 Y101.587 E0.10974
G1 X232.087 Y101.587 E2.89006
G1 X232.087 Y101.301 E0.00896
G1 X235.913 Y101.301 E0.11996
G1 X235.913 Y108.699 E0.23194
G1 X232.087 Y108.699 E0.11996
G1 X232.087 Y108.413 E0.00896
G1 X139.913 Y108.413 E2.89006
G1 X139.913 Y111.913 E0.10974
G1 X137.087 Y111.913 E0.08860
G1 X137.087 Y108.413 E0.10974
G1 X105.913 Y108.413 E0.97744
G1 X105.913 Y111.913 E0.10974
G1 X103.087 Y111.913 E0.08860
G1 X103.087 Y108.413 E0.10974
G1 X14.147 Y108.413 E2.78865
G1 F8640
G1 X14.118 Y105.122 E-0.76000
G1 E-0.04000 F2100.00000
G1 Z0.800 F10800.000
G1 X106.290 Y101.210
G1 Z0.200
G1 E0.80000 F2100.00000
G1 F1200
G1 X136.710 Y101.210 E0.95380
G1 X136.710 Y97.710 E0.10974
G1 X140.290 Y97.710 E0.11225
G1 X140.290 Y101.210 E0.10974
G1 X231.710 Y101.210 E2.86641
G1 X231.710 Y100.924 E0.00896
G1 X236.290 Y100.924 E0.14360
M73 P4 R23
G1 X236.290 Y109.076 E0.25558
G1 X231.710 Y109.076 E0.14360
G1 X231.710 Y108.790 E0.00896
G1 X140.290 Y108.790 E2.86641
G1 X140.290 Y112.290 E0.10974
G1 X136.710 Y112.290 E0.11225
G1 X136.710 Y108.790 E0.10974
G1 X106.290 Y108.790 E0.95380
G1 X106.290 Y112.290 E0.10974
G1 X102.710 Y112.290 E0.11225
G1 X102.710 Y108.790 E0.10974
G1 X13.710 Y108.790 E2.79053
G1 X13.710 Y101.210 E0.23767
G1 X102.710 Y101.210 E2.79053
G1 X102.710 Y97.710 E0.10974
G1 X106.290 Y97.710 E0.11225
G1 X106.290 Y101.150 E0.10786
G1 X106.395 Y101.596 F10800.000
G1 F8640
G1 X109.581 Y101.156 E-0.76000
G1 E-0.04000 F2100.00000
G1 Z0.800 F10800.000
G1 X105.260 Y98.200
G1 Z0.200
G1 E0.80000 F2100.00000
G1 F1200
G1 X105.630 Y98.571 E0.01644
G1 X105.630 Y99.105 E0.01677
G1 X104.895 Y98.370 E0.03262
G1 X104.361 Y98.370 E0.01677
G1 X105.630 Y99.639 E0.05633
G1 X105.630 Y100.173 E0.01677
G1 X103.827 Y98.370 E0.08005
G1 X103.370 Y98.370 E0.01437
G1 X103.370 Y98.446 E0.00240
G1 X105.630 Y100.707 E0.10036
G1 X105.630 Y101.241 E0.01677
G1 X103.370 Y98.980 E0.10036
G1 X103.370 Y99.514 E0.01677
G1 X111.986 Y108.130 E0.38257
G1 X112.520 Y108.130 E0.01677
G1 X106.259 Y101.870 E0.27798
G1 X106.793 Y101.870 E0.01677
G1 X113.054 Y108.130 E0.27798
G1 X113.588 Y108.130 E0.01677
G1 X107.327 Y101.870 E0.27798
G1 X107.861 Y101.870 E0.01677
G1 X114.122 Y108.130 E0.27798
G1 X114.656 Y108.130 E0.01677
G1 X108.395 Y101.870 E0.27798
G1 X108.929 Y101.870 E0.01677
G1 X115.190 Y108.130 E0.27798
G1 X115.724 Y108.130 E0.01677
G1 X109.463 Y101.870 E0.27798
G1 X109.998 Y101.870 E0.01677
G1 X116.258 Y108.130 E0.27798
G1 X116.792 Y108.130 E0.01677
G1 X110.532 Y101.870 E0.27798
G1 X111.066 Y101.870 E0.01677
G1 X117.326 Y108.130 E0.27798
G1 X117.860 Y108.130 E0.01677
G1 X111.600 Y101.870 E0.27798
G1 X112.134 Y101.870 E0.01677
G1 X118.394 Y108.130 E0.27798
G1 X118.928 Y108.130 E0.01677
G1 X112.668 Y101.870 E0.27798
G1 X113.202 Y101.870 E0.01677
G1 X119.462 Y108.130 E0.27798
G1 X119.996 Y108.130 E0.01677
G1 X113.736 Y101.870 E0.27798
G1 X114.270 Y101.870 E0.01677
G1 X120.530 Y108.130 E0.27798
G1 X121.064 Y108.130 E0.01677
G1 X114.804 Y101.870 E0.27798
G1 X115.338 Y101.870 E0.01677
G1 X121.598 Y108.130 E0.27798
G1 X122.132 Y108.130 E0.01677
G1 X115.872 Y101.870 E0.27798
G1 X116.406 Y101.870 E0.01677
G1 X122.666 Y108.130 E0.27798
G1 X123.200 Y108.130 E0.01677
G1 X116.940 Y101.870 E0.27798
G1 X117.474 Y101.870 E0.01677
G1 X123.734 Y108.130 E0.27798
G1 X124.268 Y108.130 E0.01677
G1 X118.008 Y101.870 E0.27798
G1 X118.542 Y101.870 E0.01677
G1 X124.802 Y108.130 E0.27798
G1 X125.336 Y108.130 E0.01677
G1 X119.076 Y101.870 E0.27798
G1 X119.610 Y101.870 E0.01677
G1 X125.870 Y108.130 E0.27798
G1 X126.404 Y108.130 E0.01677
G1 X120.144 Y101.870 E0.27798
G1 X120.678 Y101.870 E0.01677
G1 X126.938 Y108.130 E0.27798
G1 X127.472 Y108.130 E0.01677
G1 X121.212 Y101.870 E0.27798
G1 X121.746 Y101.870 E0.01677
G1 X128.006 Y108.130 E0.27798
G1 X128.540 Y108.130 E0.01677
G1 X122.280 Y101.870 E0.27798
G1 X122.814 Y101.870 E0.01677
G1 X129.074 Y108.130 E0.27798
G1 X129.608 Y108.130 E0.01677
G1 X123.348 Y101.870 E0.27798
G1 X123.882 Y101.870 E0.01677
G1 X130.142 Y108.130 E0.27798
G1 X130.676 Y108.130 E0.01677
G1 X124.416 Y101.870 E0.27798
G1 X124.950 Y101.870 E0.01677
G1 X131.210 Y108.130 E0.27798
G1 X131.744 Y108.130 E0.01677
G1 X125.484 Y101.870 E0.27798
G1 X126.018 Y101.870 E0.01677
G1 X132.278 Y108.130 E0.27798
G1 X132.812 Y108.130 E0.01677
G1 X126.552 Y101.870 E0.27798
G1 X127.086 Y101.870 E0.01677
G1 X133.346 Y108.130 E0.27798
G1 X133.880 Y108.130 E0.01677
G1 X127.620 Y101.870 E0.27798
G1 X128.154 Y101.870 E0.01677
G1 X134.414 Y108.130 E0.27798
G1 X134.948 Y108.130 E0.01677
G1 X128.688 Y101.870 E0.27798
G1 X129.222 Y101.870 E0.01677
G1 X135.482 Y108.130 E0.27798
G1 X136.016 Y108.130 E0.01677
G1 X129.756 Y101.870 E0.27798
G1 X130.290 Y101.870 E0.01677
G1 X136.720 Y108.300 E0.28551
G1 F8640
G1 X134.393 Y105.972 E-0.76000
G1 E-0.04000 F2100.00000
G1 Z0.800 F10800.000
G1 X137.550 Y111.800
G1 Z0.200
G1 E0.80000 F2100.00000
G1 F1200
G1 X137.370 Y111.620 E0.00800
G1 X137.370 Y111.086 E0.01677
G1 X137.914 Y111.630 E0.02418
G1 X138.448 Y111.630 E0.01677
G1 X137.370 Y110.552 E0.04789
G1 X137.370 Y110.018 E0.01677
G1 X138.982 Y111.630 E0.07160
G1 X139.516 Y111.630 E0.01677
G1 X137.370 Y109.484 E0.09532
G1 X137.370 Y108.950 E0.01677
G1 X139.630 Y111.210 E0.10036
G1 X139.630 Y110.676 E0.01677
G1 X130.824 Y101.870 E0.39102
G1 X131.358 Y101.870 E0.01677
G1 X139.630 Y110.142 E0.36730
G1 X139.630 Y109.608 E0.01677
G1 X131.892 Y101.870 E0.34359
G1 X132.426 Y101.870 E0.01677
G1 X139.630 Y109.074 E0.31988
G1 X139.630 Y108.540 E0.01677
G1 X132.960 Y101.870 E0.29617
G1 X133.494 Y101.870 E0.01677
G1 X139.755 Y108.130 E0.27798
G1 X140.289 Y108.130 E0.01677
G1 X134.028 Y101.870 E0.27798
G1 X134.562 Y101.870 E0.01677
G1 X140.823 Y108.130 E0.27798
G1 X141.357 Y108.130 E0.01677
G1 X135.096 Y101.870 E0.27798
G1 X135.630 Y101.870 E0.01677
G1 X141.891 Y108.130 E0.27798
G1 X142.425 Y108.130 E0.01677
G1 X136.164 Y101.870 E0.27798
G1 X136.698 Y101.870 E0.01677
G1 X142.959 Y108.130 E0.27798
G1 X143.493 Y108.130 E0.01677
G1 X137.232 Y101.870 E0.27798
G1 X137.370 Y101.870 E0.00431
G1 X137.370 Y101.473 E0.01245
G1 X144.027 Y108.130 E0.29559
G1 X144.561 Y108.130 E0.01677
G1 X137.370 Y100.939 E0.31930
G1 X137.370 Y100.405 E0.01677
G1 X145.095 Y108.130 E0.34302
G1 X145.629 Y108.130 E0.01677
G1 X137.370 Y99.871 E0.36673
G1 X137.370 Y99.337 E0.01677
G1 X146.332 Y108.300 E0.39797
G1 F8640
G1 X144.005 Y105.972 E-0.76000
G1 E-0.04000 F2100.00000
G1 Z0.800 F10800.000
G1 X140.267 Y101.700
G1 Z0.200
G1 E0.80000 F2100.00000
G1 F1200
G1 X146.697 Y108.130 E0.28551
G1 X147.231 Y108.130 E0.01677
G1 X140.971 Y101.870 E0.27798
G1 X141.505 Y101.870 E0.01677
G1 X147.765 Y108.130 E0.27798
G1 X148.299 Y108.130 E0.01677
G1 X142.039 Y101.870 E0.27798
G1 X142.573 Y101.870 E0.01677
G1 X148.833 Y108.130 E0.27798
G1 X149.367 Y108.130 E0.01677
G1 X143.107 Y101.870 E0.27798
G1 X143.641 Y101.870 E0.01677
G1 X149.901 Y108.130 E0.27798
G1 X150.435 Y108.130 E0.01677
G1 X144.175 Y101.870 E0.27798
G1 X144.709 Y101.870 E0.01677
G1 X150.969 Y108.130 E0.27798
G1 X151.503 Y108.130 E0.01677
G1 X145.243 Y101.870 E0.27798
G1 X145.777 Y101.870 E0.01677
G1 X152.037 Y108.130 E0.27798
G1 X152.571 Y108.130 E0.01677
G1 X146.311 Y101.870 E0.27798
G1 X146.845 Y101.870 E0.01677
G1 X153.105 Y108.130 E0.27798
G1 X153.639 Y108.130 E0.01677
G1 X147.379 Y101.870 E0.27798
G1 X147.913 Y101.870 E0.01677
G1 X154.173 Y108.130 E0.27798
G1 X154.707 Y108.130 E0.01677
G1 X148.447 Y101.870 E0.27798
M73 P8 R22
G1 X148.981 Y101.870 E0.01677
G1 X155.241 Y108.130 E0.27798
G1 X155.775 Y108.130 E0.01677
G1 X149.515 Y101.870 E0.27798
G1 X150.049 Y101.870 E0.01677
G1 X156.309 Y108.130 E0.27798
G1 X156.843 Y108.130 E0.01677
G1 X150.583 Y101.870 E0.27798
G1 X151.117 Y101.870 E0.01677
G1 X157.377 Y108.130 E0.27798
G1 X157.911 Y108.130 E0.01677
G1 X151.651 Y101.870 E0.27798
G1 X152.185 Y101.870 E0.01677
G1 X158.445 Y108.130 E0.27798
G1 X158.979 Y108.130 E0.01677
G1 X152.719 Y101.870 E0.27798
G1 X153.253 Y101.870 E0.01677
G1 X159.513 Y108.130 E0.27798
G1 X160.047 Y108.130 E0.01677
G1 X153.787 Y101.870 E0.27798
G1 X154.321 Y101.870 E0.01677
G1 X160.581 Y108.130 E0.27798
G1 X161.115 Y108.130 E0.01677
G1 X154.855 Y101.870 E0.27798
G1 X155.389 Y101.870 E0.01677
G1 X161.649 Y108.130 E0.27798
G1 X162.183 Y108.130 E0.01677
G1 X155.923 Y101.870 E0.27798
G1 X156.457 Y101.870 E0.01677
G1 X162.717 Y108.130 E0.27798
G1 X163.251 Y108.130 E0.01677
G1 X156.991 Y101.870 E0.27798
G1 X157.525 Y101.870 E0.01677
G1 X163.785 Y108.130 E0.27798
G1 X164.319 Y108.130 E0.01677
G1 X158.059 Y101.870 E0.27798
G1 X158.593 Y101.870 E0.01677
G1 X164.853 Y108.130 E0.27798
G1 X165.387 Y108.130 E0.01677
G1 X159.127 Y101.870 E0.27798
G1 X159.661 Y101.870 E0.01677
G1 X165.921 Y108.130 E0.27798
G1 X166.456 Y108.130 E0.01677
G1 X160.195 Y101.870 E0.27798
G1 X160.729 Y101.870 E0.01677
G1 X166.990 Y108.130 E0.27798
G1 X167.524 Y108.130 E0.01677
G1 X161.263 Y101.870 E0.27798
G1 X161.797 Y101.870 E0.01677
G1 X168.058 Y108.130 E0.27798
G1 X168.592 Y108.130 E0.01677
G1 X162.331 Y101.870 E0.27798
G1 X162.865 Y101.870 E0.01677
G1 X169.126 Y108.130 E0.27798
G1 X169.660 Y108.130 E0.01677
G1 X163.399 Y101.870 E0.27798
G1 X163.933 Y101.870 E0.01677
G1 X170.194 Y108.130 E0.27798
G1 X170.728 Y108.130 E0.01677
G1 X164.467 Y101.870 E0.27798
G1 X165.001 Y101.870 E0.01677
G1 X171.262 Y108.130 E0.27798
G1 X171.796 Y108.130 E0.01677
G1 X165.535 Y101.870 E0.27798
G1 X166.069 Y101.870 E0.01677
G1 X172.330 Y108.130 E0.27798
G1 X172.864 Y108.130 E0.01677
G1 X166.603 Y101.870 E0.27798
G1 X167.137 Y101.870 E0.01677
G1 X173.398 Y108.130 E0.27798
G1 X173.932 Y108.130 E0.01677
G1 X167.671 Y101.870 E0.27798
G1 X168.206 Y101.870 E0.01677
G1 X174.466 Y108.130 E0.27798
G1 X175.000 Y108.130 E0.01677
G1 X168.740 Y101.870 E0.27798
G1 X169.274 Y101.870 E0.01677
G1 X175.534 Y108.130 E0.27798
G1 X176.068 Y108.130 E0.01677
G1 X169.808 Y101.870 E0.27798
G1 X170.342 Y101.870 E0.01677
G1 X176.602 Y108.130 E0.27798
G1 X177.136 Y108.130 E0.01677
G1 X170.876 Y101.870 E0.27798
G1 X171.410 Y101.870 E0.01677
G1 X177.670 Y108.130 E0.27798
G1 X178.204 Y108.130 E0.01677
G1 X171.944 Y101.870 E0.27798
G1 X172.478 Y101.870 E0.01677
G1 X178.738 Y108.130 E0.27798
G1 X179.272 Y108.130 E0.01677
G1 X173.012 Y101.870 E0.27798
G1 X173.546 Y101.870 E0.01677
G1 X179.806 Y108.130 E0.27798
G1 X180.340 Y108.130 E0.01677
G1 X174.080 Y101.870 E0.27798
G1 X174.614 Y101.870 E0.01677
G1 X180.874 Y108.130 E0.27798
G1 X181.408 Y108.130 E0.01677
G1 X175.148 Y101.870 E0.27798
G1 X175.682 Y101.870 E0.01677
G1 X181.942 Y108.130 E0.27798
G1 X182.476 Y108.130 E0.01677
G1 X176.216 Y101.870 E0.27798
G1 X176.750 Y101.870 E0.01677
G1 X183.010 Y108.130 E0.27798
G1 X183.544 Y108.130 E0.01677
G1 X177.284 Y101.870 E0.27798
G1 X177.818 Y101.870 E0.01677
G1 X184.078 Y108.130 E0.27798
G1 X184.612 Y108.130 E0.01677
G1 X178.352 Y101.870 E0.27798
G1 X178.886 Y101.870 E0.01677
G1 X185.146 Y108.130 E0.27798
G1 X185.680 Y108.130 E0.01677
G1 X179.420 Y101.870 E0.27798
G1 X179.954 Y101.870 E0.01677
G1 X186.214 Y108.130 E0.27798
G1 X186.748 Y108.130 E0.01677
G1 X180.488 Y101.870 E0.27798
G1 X181.022 Y101.870 E0.01677
G1 X187.282 Y108.130 E0.27798
G1 X187.816 Y108.130 E0.01677
G1 X181.556 Y101.870 E0.27798
G1 X182.090 Y101.870 E0.01677
G1 X188.350 Y108.130 E0.27798
G1 X188.884 Y108.130 E0.01677
G1 X182.624 Y101.870 E0.27798
G1 X183.158 Y101.870 E0.01677
G1 X189.418 Y108.130 E0.27798
G1 X189.952 Y108.130 E0.01677
G1 X183.692 Y101.870 E0.27798
G1 X184.226 Y101.870 E0.01677
G1 X190.486 Y108.130 E0.27798
G1 X191.020 Y108.130 E0.01677
G1 X184.760 Y101.870 E0.27798
G1 X185.294 Y101.870 E0.01677
G1 X191.554 Y108.130 E0.27798
G1 X192.088 Y108.130 E0.01677
G1 X185.828 Y101.870 E0.27798
G1 X186.362 Y101.870 E0.01677
G1 X192.622 Y108.130 E0.27798
G1 X193.156 Y108.130 E0.01677
G1 X186.896 Y101.870 E0.27798
G1 X187.430 Y101.870 E0.01677
G1 X193.690 Y108.130 E0.27798
G1 X194.224 Y108.130 E0.01677
G1 X187.964 Y101.870 E0.27798
G1 X188.498 Y101.870 E0.01677
G1 X194.758 Y108.130 E0.27798
G1 X195.292 Y108.130 E0.01677
G1 X189.032 Y101.870 E0.27798
G1 X189.566 Y101.870 E0.01677
G1 X195.827 Y108.130 E0.27798
G1 X196.361 Y108.130 E0.01677
G1 X190.100 Y101.870 E0.27798
G1 X190.634 Y101.870 E0.01677
G1 X196.895 Y108.130 E0.27798
G1 X197.429 Y108.130 E0.01677
G1 X191.168 Y101.870 E0.27798
G1 X191.702 Y101.870 E0.01677
G1 X197.963 Y108.130 E0.27798
G1 X198.497 Y108.130 E0.01677
G1 X192.236 Y101.870 E0.27798
G1 X192.770 Y101.870 E0.01677
G1 X199.031 Y108.130 E0.27798
G1 X199.565 Y108.130 E0.01677
G1 X193.304 Y101.870 E0.27798
G1 X193.838 Y101.870 E0.01677
G1 X200.099 Y108.130 E0.27798
G1 X200.633 Y108.130 E0.01677
G1 X194.372 Y101.870 E0.27798
G1 X194.906 Y101.870 E0.01677
G1 X201.167 Y108.130 E0.27798
G1 X201.701 Y108.130 E0.01677
G1 X195.440 Y101.870 E0.27798
G1 X195.974 Y101.870 E0.01677
G1 X202.235 Y108.130 E0.27798
G1 X202.769 Y108.130 E0.01677
G1 X196.508 Y101.870 E0.27798
G1 X197.043 Y101.870 E0.01677
G1 X203.303 Y108.130 E0.27798
G1 X203.837 Y108.130 E0.01677
G1 X197.577 Y101.870 E0.27798
G1 X198.111 Y101.870 E0.01677
G1 X204.371 Y108.130 E0.27798
G1 X204.905 Y108.130 E0.01677
G1 X198.645 Y101.870 E0.27798
G1 X199.179 Y101.870 E0.01677
G1 X205.439 Y108.130 E0.27798
G1 X205.973 Y108.130 E0.01677
G1 X199.713 Y101.870 E0.27798
G1 X200.247 Y101.870 E0.01677
G1 X206.507 Y108.130 E0.27798
G1 X207.041 Y108.130 E0.01677
G1 X200.781 Y101.870 E0.27798
G1 X201.315 Y101.870 E0.01677
G1 X207.575 Y108.130 E0.27798
